libs/icons/src/svg/calendar-schedule.svg

<svg width="16" height="16" viewBox="0 0 16 16" fill="none" xmlns="http://www.w3.org/2000/svg">
<g clip-path="url(#clip0_3_3696)">
<path fill-rule="evenodd" clip-rule="evenodd" d="M5.33333 0.666667C5.33333 0.298477 5.03486 0 4.66667 0C4.29848 0 4 0.298477 4 0.666667V2H0.666667C0.298477 2 0 2.29848 0 2.66667V14.6667C0 15.0349 0.298477 15.3333 0.666667 15.3333H6C6.36819 15.3333 6.66667 15.0349 6.66667 14.6667C6.66667 14.2985 6.36819 14 6 14H1.33333V6H14.6667V7.33333C14.6667 7.70152 14.9651 8 15.3333 8C15.7015 8 16 7.70152 16 7.33333V2.66667C16 2.29848 15.7015 2 15.3333 2H12V0.666667C12 0.298477 11.7015 0 11.3333 0C10.9651 0 10.6667 0.298477 10.6667 0.666667V2H5.33333V0.666667ZM14.6667 4.66667V3.33333H1.33333V4.66667H14.6667Z" fill="#202327"/>
<path d="M12 10.6667C12 10.2985 11.7015 10 11.3333 10C10.9651 10 10.6667 10.2985 10.6667 10.6667V12C10.6667 12.3682 10.9651 12.6667 11.3333 12.6667H12.6667C13.0349 12.6667 13.3333 12.3682 13.3333 12C13.3333 11.6318 13.0349 11.3333 12.6667 11.3333H12V10.6667Z" fill="#202327"/>
<path fill-rule="evenodd" clip-rule="evenodd" d="M11.3333 8C9.1242 8 7.33333 9.79086 7.33333 12C7.33333 14.2091 9.1242 16 11.3333 16C13.5425 16 15.3333 14.2091 15.3333 12C15.3333 9.79086 13.5425 8 11.3333 8ZM8.66667 12C8.66667 10.5272 9.86057 9.33333 11.3333 9.33333C12.8061 9.33333 14 10.5272 14 12C14 13.4728 12.8061 14.6667 11.3333 14.6667C9.86057 14.6667 8.66667 13.4728 8.66667 12Z" fill="#202327"/>
</g>
<defs>
<clipPath id="clip0_3_3696">
<rect width="16" height="16" fill="white"/>
</clipPath>
</defs>
</svg>

<svg xmlns="http://www.w3.org/2000/svg" viewBox="0 0 16 16" class="sageicon"><path fill-rule="evenodd" d="M5.333.667A.667.667 0 1 0 4 .667V2H.667A.667.667 0 0 0 0 2.667v12c0 .368.298.666.667.666H6A.667.667 0 1 0 6 14H1.333V6h13.334v1.333a.667.667 0 1 0 1.333 0V2.667A.667.667 0 0 0 15.333 2H12V.667a.667.667 0 0 0-1.333 0V2H5.333V.667Zm9.334 4V3.333H1.333v1.334h13.334Z"/><path d="M12 10.667a.667.667 0 0 0-1.333 0V12c0 .368.298.667.666.667h1.334a.667.667 0 0 0 0-1.334H12v-.666Z"/><path fill-rule="evenodd" d="M11.333 8a4 4 0 1 0 0 8 4 4 0 0 0 0-8Zm-2.666 4A2.667 2.667 0 1 1 14 12a2.667 2.667 0 0 1-5.333 0Z"/></svg>
